app/assets/images/heroicons/outline/strikethrough.svg

<svg width="24" height="24" viewBox="0 0 24 24" fill="none" xmlns="http://www.w3.org/2000/svg">
<path d="M11.9997 12.0002C11.894 11.976 11.7882 11.9497 11.6822 11.9213C10.097 11.4966 8.77773 10.6741 7.92138 9.68475C7.04857 8.67637 6.65666 7.49462 6.95428 6.38385C7.54391 4.18325 10.6167 3.09459 13.8174 3.95226C14.8398 4.22622 15.7516 4.66562 16.4999 5.20855M6.42133 17.8115C7.27768 18.8009 8.59697 19.6233 10.1821 20.0481C13.3829 20.9058 16.4557 19.8171 17.0453 17.6165C17.2777 16.7489 17.0895 15.838 16.5801 15.0003M3.75 12.0003H20.2499" stroke="black" stroke-width="1.5" stroke-linecap="round" stroke-linejoin="round"/>
</svg>

<svg xmlns="http://www.w3.org/2000/svg" fill="none" viewBox="0 0 24 24" stroke-width="1.5" stroke="currentColor" aria-hidden="true" data-slot="icon">
  <path stroke-linecap="round" stroke-linejoin="round" d="M12 12a8.912 8.912 0 0 1-.318-.079c-1.585-.424-2.904-1.247-3.76-2.236-.873-1.009-1.265-2.19-.968-3.301.59-2.2 3.663-3.29 6.863-2.432A8.186 8.186 0 0 1 16.5 5.21M6.42 17.81c.857.99 2.176 1.812 3.761 2.237 3.2.858 6.274-.23 6.863-2.431.233-.868.044-1.779-.465-2.617M3.75 12h16.5"/>
</svg>
